files/2024-05-12/svg/work/thangrat.svg

<?xml version="1.0" encoding="UTF-8" standalone="no"?>
<!-- Created with Inkscape (http://www.inkscape.org/) -->

<svg
   width="48"
   height="48"
   viewBox="0 0 48 48"
   version="1.1"
   id="svg1"
   xml:space="preserve"
   sodipodi:docname="thangrat.svg"
   inkscape:version="1.3.2 (091e20e, 2023-11-25, custom)"
   xmlns:inkscape="http://www.inkscape.org/namespaces/inkscape"
   xmlns:sodipodi="http://sodipodi.sourceforge.net/DTD/sodipodi-0.dtd"
   xmlns="http://www.w3.org/2000/svg"
   xmlns:svg="http://www.w3.org/2000/svg"><sodipodi:namedview
     id="namedview1"
     pagecolor="#505050"
     bordercolor="#eeeeee"
     borderopacity="1"
     inkscape:showpageshadow="0"
     inkscape:pageopacity="0"
     inkscape:pagecheckerboard="0"
     inkscape:deskcolor="#505050"
     inkscape:document-units="px"
     inkscape:zoom="17.9375"
     inkscape:cx="23.972125"
     inkscape:cy="24"
     inkscape:window-width="1920"
     inkscape:window-height="1057"
     inkscape:window-x="-8"
     inkscape:window-y="-8"
     inkscape:window-maximized="1"
     inkscape:current-layer="svg1" /><defs
     id="defs1" /><path
     id="path2-9-1"
     style="fill:none;stroke:#ffffff;stroke-width:1;stroke-linecap:round;stroke-linejoin:round;stroke-opacity:1"
     d="m 29.015605,38.497812 c 0,-2.158938 -1.748566,-3.909104 -3.605312,-3.912029 -5.263304,-0.0029 -9.862025,-4.129472 -10.596124,-9.485774 l -7.8094658,-0.0394 c 0.7480539,9.66664 8.8372808,17.254709 18.4055898,17.312064 1.857028,0.01116 3.605312,-1.715924 3.605312,-3.87486 z m 11.979688,-0.23914 A 4.2457716,4.2413291 0 0 0 36.749522,34.017341 4.2457716,4.2413291 0 0 0 32.50375,38.258672 4.2457716,4.2413291 0 0 0 36.749522,42.5 4.2457716,4.2413291 0 0 0 40.995293,38.258672 Z M 29.015605,9.5021894 c 0,2.1589376 -1.748566,3.9091036 -3.605312,3.9120286 -5.263304,0.0029 -9.862025,4.129471 -10.596124,9.485773 l -7.8094658,0.0394 C 7.7527571,13.272753 15.841984,5.684685 25.410293,5.6273303 c 1.857028,-0.011157 3.605312,1.7159224 3.605312,3.8748591 z M 40.995293,9.741329 A 4.2457716,4.2413291 0 0 1 36.749522,13.982659 4.2457716,4.2413291 0 0 1 32.50375,9.741329 4.2457716,4.2413291 0 0 1 36.749522,5.5 4.2457716,4.2413291 0 0 1 40.995293,9.741329 Z" /></svg>

<?xml version="1.0" encoding="UTF-8"?>
<!-- Created with Inkscape (http://www.inkscape.org/) -->
<svg width="48" height="48" version="1.1" viewBox="0 0 48 48" xml:space="preserve" xmlns="http://www.w3.org/2000/svg"><path d="m29.016 38.498c0-2.1589-1.7486-3.9091-3.6053-3.912-5.2633-0.0029-9.862-4.1295-10.596-9.4858l-7.8095-0.0394c0.74805 9.6666 8.8373 17.255 18.406 17.312 1.857 0.01116 3.6053-1.7159 3.6053-3.8749zm11.98-0.23914a4.2458 4.2413 0 0 0-4.2458-4.2413 4.2458 4.2413 0 0 0-4.2458 4.2413 4.2458 4.2413 0 0 0 4.2458 4.2413 4.2458 4.2413 0 0 0 4.2458-4.2413zm-11.98-28.756c0 2.1589-1.7486 3.9091-3.6053 3.912-5.2633 0.0029-9.862 4.1295-10.596 9.4858l-7.8095 0.0394c0.74805-9.6666 8.8373-17.255 18.406-17.312 1.857-0.011157 3.6053 1.7159 3.6053 3.8749zm11.98 0.23914a4.2458 4.2413 0 0 1-4.2458 4.2413 4.2458 4.2413 0 0 1-4.2458-4.2413 4.2458 4.2413 0 0 1 4.2458-4.2413 4.2458 4.2413 0 0 1 4.2458 4.2413z" fill="none" stroke="#fff" stroke-linecap="round" stroke-linejoin="round"/></svg>
